X: 1
T: White Cockade
R: march
Z: 2011 John Chambers <jc:trillian.mit.edu>
M: C|
L: 1/8
K: G
"A"[|] GA \
| "G"B2B2 cBAG | "G"BABc B2g2 | "C"edcB "Am"cBAG | "D7"FGAB A2GA \
| "G"B2B2 cBAG | "G"B2d2 g2fg | "D"a2gf "C"efge | "G"d2B2 B2 :|
"B"|: Bc \
| "G"d2B2 g2B2 | dcde d2g2 | "Am"edcB cBAG | "D7"FGAB A2GA \
| "G"B2B2 cBAG | B2d2 g2fg | "D"a2gf "C"efge | "G"d2B2 B2 :|
